X:1
T:Gudenne de Langueux
Z:Roger Ngaret (94-95)
R:
C:Trad.
S:
A:Bretagne
M:4/4
L:1/16
K:C
Q:1/4=130
"C"g2gg g2a2 g2f2 e2g2 | "G"f2e2 d2g2 f2e2 d4 |
"C"g2gg g2a2 g2f2 e2g2 | "G"f2e2 d4 "C"g4 c4 | 
c2de d2c2 "G"B2c2 d2g2 | f2e2 d2g2 f2e2 d4 | 
"C"c2de d2c2 "G"B2c2 d2g2 | f2e2 d4 "C"g4 | c4 |]
